Obsidian-SemiLight/actions/22s/format-text-color.svg

<svg viewBox="0 0 22 22" xmlns="http://www.w3.org/2000/svg"><path d="m17.5 4c-.486455 1.7025-1.6782 3.1660906-2.203125 4.3378906-.1837.3484-.296875.7394094-.296875 1.1621094 0 1.385 1.115 2.5 2.5 2.5s2.5-1.115 2.5-2.5c0-.4227-.113175-.8137094-.296875-1.1621094-.524925-1.1718-1.716675-2.6353906-2.203125-4.3378906zm-13.5 4v2h4v10h2v-10h4v-2z" fill="#4d4d4d"/></svg>

<svg xmlns="http://www.w3.org/2000/svg" viewBox="0 0 22 22">
  <defs id="defs3051">
    <style type="text/css" id="current-color-scheme">
      .ColorScheme-Text {
        color:#4d4d4d;
      }
      </style>
  </defs>
 <path 
    style="fill:currentColor;fill-opacity:1;stroke:none" 
    d="M 17.5 4 C 17.013545 5.7025 15.8218 7.1660906 15.296875 8.3378906 C 15.113175 8.6862906 15 9.0773 15 9.5 C 15 10.885 16.115 12 17.5 12 C 18.885 12 20 10.885 20 9.5 C 20 9.0773 19.886825 8.6862906 19.703125 8.3378906 C 19.1782 7.1660906 17.98645 5.7025 17.5 4 z M 4 8 L 4 10 L 8 10 L 8 20 L 10 20 L 10 10 L 14 10 L 14 8 L 4 8 z "
    class="ColorScheme-Text"
    />  
</svg>
